X: 8412
T: Cowboy, The
R: jig
M: 6/8
K: Amajor
B|AFE A2 B|cff ecB|AFE ABc|dcB AFE|
AFE A2 B|cff ecB|AFE A2 B|1 cAA A2:|2 cAA Ace||
~f3 fec|faf fec|e^de ~e3|eaf ecA|
d2 e ~f3|fac B2f|ecA c2 B|1 cAA Ace:|2 cAA A2||

